!!!SOCIAL_FUNCTION:	deer dance songs
!!!PDT:	1932
!!!OTL: No_69_Song_Concerning_the_Raven.krn
!!!REG: Southwest
!!!LANG: Non-Tone
!!!LING_GROUP: Yuman-Cochimi
**kern	**kern
*staff2	*staff1
=1-	=1-
*clefF4	*clefF4
*k[f#c#g#d#]	*k[f#c#g#d#]
*M2/4	*M2/4
2r	4r
.	8r
.	8C#/
=2	=2
4GG#/	4E\
4GG#/	4E\
=3	=3
4GG#/	4E\
4r	8r
.	8E\
=4	=4
4GG#/	4B\
4GG#/	4B\
=5	=5
4GG#/	4B\
4r	8F#\L
.	8F#\J
=6	=6
4GG#/	8G#\L
.	8F#\J
4GG#/	4G#\
=7	=7
4GG#/	4F#\
4GG#/	8E\
.	8r
=8	=8
4GG#/	4F#\
4GG#/	4F#\
=9	=9
4GG#/	4F#\
4r	8E\L
.	8F#\J
=10	=10
4GG#/	8F#\L
.	8F#\J
4r	8F#\L
.	8F#\J
=11||	=11||
*M3/4	*M3/4
4GG#/	4F#\
4GG#/	4r
4r	8r
.	8E\
=12||	=12||
*M2/4	*M2/4
4GG#/	4F#\
4GG#/	4E\
=13	=13
4GG#/	4E\
4r	16C#/
.	16r
.	8F#\
=14	=14
4GG#/	8F#\L
.	8F#\J
4GG#/	8F#\L
.	8F#\J
=15	=15
4GG#/	4F#\
4r	16F#\
.	16r
.	8F#\
=16	=16
4GG#/	8F#\L
.	8E\J
4GG#/	8F#\L
.	8E\J
=17	=17
4GG#/	4F#\
4r	16E\
.	16r
.	8E\
=18	=18
4GG#/	4E\
4GG#/	4E\
=19	=19
4GG#/	4E\
4r	16C#/
.	16r
.	8E\
=20	=20
4GG#/	8E\L
.	8E\J
4GG#/	8E\L
.	8E\J
=21||	=21||
*M3/4	*M3/4
4GG#/	4E\
4r	4r
4r	8r
.	8C#/
=22||	=22||
*M2/4	*M2/4
4GG#/	4E\
4GG#/	4C#/
=23	=23
4GG#/	4C#/
4r	8r
.	8F#\
=24	=24
4GG#/	8F#\L
.	8F#\J
4GG#/	8F#\L
.	8F#\J
=25	=25
4GG#/	4F#\
4r	16E\
.	16r
.	8F#\
=26	=26
4GG#/	8F#\L
.	8E\J
4GG#/	8F#\L
.	8E\J
=27	=27
4GG#/	4F#\
4r	16C#/
.	16r
.	8E\
=28	=28
4GG#/	8E\
.	8r
4GG#/	4E\
=29	=29
4GG#/	4E\
4r	16C#/
.	16r
.	8E\
=30	=30
4GG#/	8E\L
.	8E\J
4GG#/	4E\
=31||	=31||
*M3/4	*M3/4
4GG#/	4E\
4r	4r
4r	8r
.	8E\
=32||	=32||
*M2/4	*M2/4
4GG#/	4E\
4GG#/	4E\
=33	=33
4GG#/	4E\
4GG#/	8r
.	8B\
=34	=34
4GG#/	4B\
4GG#/	8.B\L
.	16F#\Jk
=35	=35
4GG#/	4B\
4r	16F#\
.	16r
.	8F#\
=36	=36
4GG#/	8F#\L
.	8E\J
4GG#/	8F#\L
.	8G#\J
=37	=37
4GG#/	4F#\
4r	8E\
.	8r
=38	=38
4GG#/	2F#\
4GG#/	.
=39	=39
4GG#/	4F#\
4r	8E\L
.	8F#\J
=40	=40
4GG#/	4F#\
4GG#/	8F#\L
.	8F#\J
=41||	=41||
*M3/4	*M3/4
4GG#/	4F#\
4r	4r
4r	8r
.	8E\
=42||	=42||
*M2/4	*M2/4
4GG#/	4F#\
4GG#/	4E\
=43	=43
4GG#/	4E\
4r	8r
.	8F#\
=44	=44
4GG#/	8F#\L
.	8F#\J
4GG#/	8F#\L
.	8F#\J
=45	=45
4GG#/	4F#\
4r	16E\
.	16r
.	8E\
=46	=46
4GG#/	8F#\L
.	8E\J
4GG#/	8F#\L
.	8E\J
=47	=47
4GG#/	4F#\
4r	16C#/
.	16r
.	8E\
=48	=48
4GG#/	8E\
.	8r
4GG#/	4E\
=49	=49
4GG#/	4C#/
4r	8r
.	8E\
=50	=50
4GG#/	8E\L
.	8E\J
4GG#/	8E\L
.	8E\J
=51||	=51||
*M3/4	*M3/4
4GG#/	4E\
4r	4r
4r	8r
.	8E\
=52||	=52||
*M2/4	*M2/4
4GG#/	4E\
4GG#/	4E\
=53	=53
4GG#/	4E\
4GG#/	8r
.	8B\
=54	=54
4GG#/	4B\
4GG#/	8.B\L
.	16F#\Jk
=55	=55
4GG#/	4B\
4r	16F#\
.	16r
.	8F#\
=56	=56
4GG#/	8F#\L
.	8E\J
4GG#/	8F#\L
.	8G#\J
=57	=57
4GG#/	4F#\
4r	8E\
.	8r
=58	=58
4GG#/	2F#\
4GG#/	.
=59	=59
4GG#/	4F#\
4r	8E\L
.	8F#\J
=60	=60
4GG#/	4F#\
4GG#/	8F#\L
.	8F#\J
=61||	=61||
*M3/4	*M3/4
4GG#/	4F#\
4r	4r
4r	8r
.	8E\
=62||	=62||
*M2/4	*M2/4
4GG#/	4F#\
4GG#/	4E\
=63	=63
4GG#/	4E\
4r	8r
.	8F#\
=64	=64
!!pagebreak:default
4GG#/	8F#\L
.	8F#\J
4GG#/	8F#\L
.	8F#\J
=65	=65
4GG#/	4F#\
4r	16G#\
.	16r
.	8E\
=66	=66
4GG#/	8F#\L
.	8E\J
4GG#/	8F#\L
.	8E\J
=67	=67
4GG#/	4F#\
4r	16C#/
.	16r
.	8E\
=68	=68
4GG#/	8E\
.	8r
4GG#/	4E\
=69	=69
4GG#/	4C#/
4r	8r
.	8E\
=70	=70
4GG#/	8E\L
.	8E\J
4GG#/	8E\L
.	8E\J
=71	=71
4GG#/	4E\
4r	4r
==	==
*-	*-
